X:1
T:Title
%%score { ( 1 3 ) | ( 2 4 ) }
L:1/8
Q:1/4=118
M:3/4
K:Eb
V:1 treble nm="Grand Piano"
V:3 treble 
V:2 bass 
V:4 bass 
V:1
 [B,EG]2 [CEA]2 [B,EG]2 | [B,EB]4 [G,E]2 | F2 z2 z2 | E6 | c2 B2 G2 | z2 F2 G2 | [DF]6 | %7
w: H.~J.~E.~Holmes * *|||||||
 [EG]2 [EG]2 [FG]2 | [EG]4 [EG]2 | =A2 G2 A2 | B6 | [Gd]2 [CGc]2 [CEG]2 | [DFB]4 [CF=A]2 | [DFB]6 | %14
w: |||||||
 B2 c2 B2 | e4 d2 | d2 c2 B2 | A6 | G2 _G2 =G2 | B2 z2 z2 | B,6- | [B,D]6 | F2 G2 F2 | E4 B2 | %24
w: ||||||||||
 B2 z2 [C=EG]2 | [CFA]6 | [CEG]2 [B,EG]2 [A,CF]2 | [G,B,E]4 [F,B,D]2 | [G,B,E]6 |] %29
w: |||||
V:2
 E,2 E,2 E,2 | G,,4 C,2 | z2 G2 B,,2 | [E,G,]6 | [A,E]2 [G,B,E]2 [E,B,E]2 | [F,=A,]4 [F,A,E]2 | %6
 [B,,B,]6 | [E,B,]2 [E,B,]2 [D,=B,]2 | [C,C]4 [C,C]2 | [F,CE]4 [_G,CE]2 | [G,B,D]6 | %11
 [E,G,]2 E,2 C,2 | F,4 F,2 | B,,6 | [A,B,D]2 [A,B,D]2 [A,B,D]2 | [G,B,E]4 [G,B,E]2 | %16
 [A,E]4 [G,B,E]2 | [F,CE]4 [B,,B,]2 | [E,B,E]2 [E,=A,E]2 [E,B,E]2 | z2 A2 A,,2 | z6 | F,6 | %22
 [A,B,D]2 [A,B,D]2 [A,B,D]2 | [G,B,]4 [G,B,E]2 | z2 A2 C,2 | F,6 | G,2 G,,2 A,,2 | B,,4 B,,2 | %28
 E,6 |] %29
V:3
 x6 | x6 | [CE]4 [A,DF]2 | x6 | x6 | E4 z2 | x6 | x6 | x6 | x6 | x6 | x6 | x6 | x6 | x6 | x6 | x6 | %17
 z2 z2 D2 | x6 | [CE]4 [A,CF]2 | [G,E]6 | x6 | x6 | x6 | [C=E]4 z2 | x6 | x6 | x6 | x6 |] %29
V:4
 x6 | x6 | A,,4 z2 | x6 | x6 | x6 | x6 | x6 | x6 | x6 | x6 | x6 | x6 | x6 | x6 | x6 | x6 | x6 | %18
 x6 | A,,4 z2 | B,,6- | B,,6 | x6 | x6 | C,4 z2 | x6 | x6 | x6 | x6 |] %29

